F[BALLADE
CUT[Graserin und Reiter
    Wou genga in Summa doeia Maidla hin,]
CNR[wou genga sie hin? Nau Gras,]
REG[Osteuropa, Tschechoslowakei, Eger]
SRC[7, S. 132
    1934 aufgezeichnet]
KEY[Q0149C 16  G 6/8]
MEL[-5_  3_3_2_1_1_-6-5  -5__-3_-5__
    -5_  -6_-6_-6_-7__-7_  1__.0__
    -5_  4__4_4__-5_  3__.5__
    -5_  4__4_4__-5_  3__.5__
    42  2__4_4__-7_  1__.0__ //] >>
FCT[Ballade, Verfuehrung, Verlassen des Elternhauses]
CMT[Verzierung (Vorschlag) .]
